X:1
T:Title
%%score { ( 1 3 4 ) | 2 }
L:1/8
M:2/4
K:Eb
V:1 treble nm="Grand Piano"
V:3 treble 
V:4 treble 
V:2 bass 
V:1
 z2[Q:1/4=100] G>A | G>E F>G | G4 | F4- | F2 z2 | F>D E>F | E4- | E2 z2 | =E>E G>G | z2 z c/B/ | %10
 A4- | A2 c>d | c>=B c>d | d4- | d2 z2 | G>B A>G | G4[K:bass] | D4- | D2 z2 | z4 | G4 | F4- | %22
 F2 z2 | z4 | c4 | =B4- | B2 z2 | z4 | [E,G,C]4- | [E,G,C]2 z2 |] %30
V:2
 z4 | z4 | C,2 E,2 | C,2 F,2 | z2 [F,A,]2 | [C,F,A,]4 | C,2 E,2 | C,4 | [C,=E,G,]4 | C,2 =E,2 | %10
 C,2 F,2 | A,4- | A,4 | =B,,2 [D,F,]2 | [D,F,]2 z2 | z4 | =B,,2 [D,F,]2 | =B,,2 D,2 | %18
 =B,,2[K:treble] G>A | G>B A>G | =B,,2 [D,F,]2 | C,2 F,2 | A,2[K:treble] F>G | A>G F>A | C,2 F,2 | %25
 =B,,2 D,2 | G,2[K:treble] G>A | G>F E>D | C,4- | C,2 z2 |] %30
V:3
 x4 | x4 | z2 G,2 | z2 A,2 | C,2 F>G | x4 | z2 G,2 | z2 C>C | x4 | B4 | x4 | x4 | x4 | z2 G,2 | %14
 G,2 G>A | x4 | z2[K:bass] G,2 | z2 [F,G,]2 | x4 | x4 | z2 G,2 | x4 | x4 | x4 | z2 A,2 | z2 F,2 | %26
 x4 | x4 | x4 | x4 |] %30
V:4
 x4 | x4 | x4 | x4 | x4 | x4 | x4 | x4 | x4 | z2 G,2 | x4 | x4 | x4 | x4 | x4 | x4 | %16
 x2[K:bass] x2 | x4 | x4 | x4 | x4 | x4 | x4 | x4 | x4 | x4 | x4 | x4 | x4 | x4 |] %30

